X:1
T:Title
%%score [ ( 1 2 ) ( 3 4 ) ] { ( 5 6 ) | 7 }
L:1/8
Q:1/4=120
M:4/4
K:Eb
V:1 treble nm="Midi_74"
V:2 treble 
V:3 bass nm="Midi_74"
V:4 bass 
V:5 treble nm="Org."
V:6 treble 
V:7 bass 
V:1
 B8 | e4 (f2 e2) | d8 || e8 | (G2 A2) B4 | (F2 G2) A4 | G8 || G8 | c4 (d2 c2) | =B8 || c8 | %11
 (E2 F2) G4 |"^William Henry Havergal\n(1793-1870)" (A2 G2) F4 | E8 |] %14
V:2
 G8 | G4 F4 | F8 || E8 | E4 E4 | D4 (E2 F2) | E8 || E8 | E4 A4 | G8 || E8 | (E2 D2) (E2 _D2) | %12
 C4 =D4 | E8 |] %14
V:3
 B,8 | C4 C4 | B,8 || B,8 | C4 B,4 | D4 C4 | B,8 || (C6 D2) | E4 D4 | D8 || C8 | B,4 B,4 | %12
 A,4 (A,2 B,2) | G,8 |] %14
V:4
 (E,6 D,2) | (C,2 B,,2) A,,4 | B,,8 || G,,8 | C,4 (G,,2 A,,2) | B,,4 (C,2 D,2) | E,8 || (C6 B,2) | %8
 (A,2 G,2) F,4 | G,8 || A,8 | (G,2 F,2) E,4 | A,,4 B,,4 | E,8 |] %14
V:5
 B8 | e4 f2 e2 | d8 || e8 | G2 A2 B4 | F2 G2 [A,A]4 | G8 || G8 | c4 d2 c2 | =B8 || c8 | %11
 E2 [DF]2 [B,G]4 | A2 G2 [DF]4 | E8 |] %14
V:6
 [EG]8 | [Gc]4 [Fc]4 | [FB]8 || [EB]8 | [CE]4 [B,E]4 | [B,D]4 E2 F2 | [B,E]8 || E6 D2 | %8
 [EA]4 [DA]4 | [DG]8 || [CE]8 | B,4 E2 _D2 | [A,C]4 A,2 B,2 | [G,E]8 |] %14
V:7
 E,6 D,2 | C,2 B,,2 A,,4 | B,,8 || G,,8 | C,4 G,,2 A,,2 | B,,4 C,2 D,2 | E,8 || C6 B,2 | %8
 A,2 G,2 F,4 | G,8 || A,8 | G,2 F,2 E,4 | A,,4 B,,4 | E,8 |] %14

